icons/Chevron-Right.svg

<svg width="24" height="24" viewBox="0 0 24 24" fill="none" xmlns="http://www.w3.org/2000/svg">
<path fill-rule="evenodd" clip-rule="evenodd" d="M6.157 5.419L13.08 12.352L6.157 19.285C6.1083 19.3317 6.06955 19.3877 6.04307 19.4498C6.0166 19.5118 6.00295 19.5785 6.00295 19.646C6.00295 19.7135 6.0166 19.7802 6.04307 19.8423C6.06955 19.9043 6.1083 19.9603 6.157 20.007L8.344 22.207C8.44044 22.3014 8.57003 22.3543 8.705 22.3543C8.83997 22.3543 8.96956 22.3014 9.066 22.207L16.366 14.907L18.553 12.72C18.6474 12.6236 18.7003 12.494 18.7003 12.359C18.7003 12.224 18.6474 12.0944 18.553 11.998L16.366 9.811L9.093 2.511C8.99656 2.41658 8.86697 2.3637 8.732 2.3637C8.59703 2.3637 8.46744 2.41658 8.371 2.511L6.153 4.711C6.1043 4.75767 6.06555 4.81371 6.03907 4.87575C6.0126 4.93779 5.99895 5.00455 5.99895 5.072C5.99895 5.13946 6.0126 5.20621 6.03907 5.26825C6.06555 5.33029 6.1043 5.38633 6.153 5.433L6.157 5.419Z" fill="black"/>
</svg>

<svg xmlns="http://www.w3.org/2000/svg" viewBox="0 0 24 24">
  <path d="M6.157 5.419l6.923 6.933-6.923 6.933a.5.5 0 000 .722l2.187 2.2a.516.516 0 00.722 0l7.3-7.3 2.187-2.187a.516.516 0 000-.722l-2.187-2.187-7.273-7.3a.516.516 0 00-.722 0l-2.218 2.2a.5.5 0 000 .722l.004-.014z"/>
</svg>
